X:745
T:Trip to Skye
C:John Whelan
R:Jig
N:
Z:
M:6/8
K:Bm
|:"Bm"F2 Bc d2|"Bm/G"F2 Bcd2|"A"ceA Bce|"Bm"dcB AFE|
"Bm"F2 Bc d2|"Bm/G"F2 Bc D2|"A"ceA Bce|"Bm"d2 B2 B2:|
|:"D"f2 edcB|"A"ceA Bce|"Bm"d2 cedc|d2 B2 B2|
"D"f2 edcB|"A"ceA Bce|"Bm"d2 cedc|"Bm/G"BA FE F2:|
